X: 12
T:Black Nag
M:6/8
L:1/8
K:F
A| d>ed e>de| f>ef efg| a>gf e>de| d3 d2 A|d>ed e>de| f>ef efg| a>gf e>d e| d3 d2 A:|
|:d|ecA ecA| ecA ecA|afd afd|afd afd|ecA ecA|ecA e2 f/2g/2| a>gf e>de| d3 d2:|

